src/assets/Imgs/profile/sbt.svg

<svg width="19" height="19" viewBox="0 0 19 19" fill="none" xmlns="http://www.w3.org/2000/svg">
<g id="Frame">
<path id="Vector" opacity="0.4" d="M14 16.2429H13.25V16.0554C13.25 15.2304 12.575 14.5554 11.75 14.5554H10.0625V12.8379C9.875 12.8604 9.6875 12.8679 9.5 12.8679C9.3125 12.8679 9.125 12.8604 8.9375 12.8379V14.5554H7.25C6.425 14.5554 5.75 15.2304 5.75 16.0554V16.2429H5C4.6925 16.2429 4.4375 16.4979 4.4375 16.8054C4.4375 17.1129 4.6925 17.3679 5 17.3679H14C14.3075 17.3679 14.5625 17.1129 14.5625 16.8054C14.5625 16.4979 14.3075 16.2429 14 16.2429Z" fill="#5200FF"/>
<path id="Vector_2" opacity="0.4" d="M4.64002 9.59719C4.14502 9.40969 3.71002 9.10219 3.36502 8.75719C2.66752 7.98469 2.21002 7.06219 2.21002 5.98219C2.21002 4.90219 3.05752 4.05469 4.13752 4.05469H4.55752C4.36252 4.45219 4.25002 4.89469 4.25002 5.36719V7.61719C4.25002 8.32219 4.38502 8.98969 4.64002 9.59719Z" fill="#5200FF"/>
<path id="Vector_3" opacity="0.4" d="M16.79 5.98219C16.79 7.06219 16.3325 7.98469 15.635 8.75719C15.29 9.10219 14.855 9.40969 14.36 9.59719C14.615 8.98969 14.75 8.32219 14.75 7.61719V5.36719C14.75 4.89469 14.6375 4.45219 14.4425 4.05469H14.8625C15.9425 4.05469 16.79 4.90219 16.79 5.98219Z" fill="#5200FF"/>
<path id="Vector_4" d="M11.75 2.36719H7.25C5.5925 2.36719 4.25 3.70969 4.25 5.36719V7.61719C4.25 10.5197 6.5975 12.8672 9.5 12.8672C12.4025 12.8672 14.75 10.5197 14.75 7.61719V5.36719C14.75 3.70969 13.4075 2.36719 11.75 2.36719ZM11.63 7.20469L11.165 7.77469C11.09 7.85719 11.0375 8.02219 11.045 8.13469L11.09 8.86969C11.12 9.31969 10.7975 9.55219 10.3775 9.38719L9.695 9.11719C9.59 9.07969 9.41 9.07969 9.305 9.11719L8.6225 9.38719C8.2025 9.55219 7.88 9.31969 7.91 8.86969L7.955 8.13469C7.9625 8.02219 7.91 7.85719 7.835 7.77469L7.37 7.20469C7.0775 6.85969 7.205 6.47719 7.64 6.36469L8.3525 6.18469C8.465 6.15469 8.6 6.04969 8.66 5.95219L9.0575 5.33719C9.305 4.95469 9.695 4.95469 9.9425 5.33719L10.34 5.95219C10.4 6.04969 10.535 6.15469 10.6475 6.18469L11.36 6.36469C11.795 6.47719 11.9225 6.85969 11.63 7.20469Z" fill="#5200FF"/>
<path id="Vector_5" opacity="0.4" d="M11.63 7.20516L11.165 7.77516C11.09 7.85766 11.0375 8.02266 11.045 8.13516L11.09 8.87015C11.12 9.32015 10.7975 9.55265 10.3775 9.38765L9.695 9.11765C9.59 9.08015 9.41 9.08015 9.305 9.11765L8.6225 9.38765C8.2025 9.55265 7.87999 9.32015 7.90999 8.87015L7.95499 8.13516C7.96249 8.02266 7.90999 7.85766 7.83499 7.77516L7.36999 7.20516C7.07749 6.86016 7.20499 6.47766 7.63999 6.36516L8.3525 6.18516C8.465 6.15516 8.6 6.05016 8.66 5.95266L9.0575 5.33766C9.305 4.95516 9.695 4.95516 9.9425 5.33766L10.34 5.95266C10.4 6.05016 10.535 6.15516 10.6475 6.18516L11.36 6.36516C11.795 6.47766 11.9225 6.86016 11.63 7.20516Z" fill="#FCFAFF"/>
</g>
</svg>

<svg fill="none" height="19" viewBox="0 0 19 19" width="19" xmlns="http://www.w3.org/2000/svg"><g fill="#5200ff"><path d="m14 16.2429h-.75v-.1875c0-.825-.675-1.5-1.5-1.5h-1.6875v-1.7175c-.1875.0225-.375.03-.5625.03s-.375-.0075-.5625-.03v1.7175h-1.6875c-.825 0-1.5.675-1.5 1.5v.1875h-.75c-.3075 0-.5625.255-.5625.5625s.255.5625.5625.5625h9c.3075 0 .5625-.255.5625-.5625s-.255-.5625-.5625-.5625z" opacity=".4"/><path d="m4.64002 9.59719c-.495-.1875-.93-.495-1.275-.84-.6975-.7725-1.155-1.695-1.155-2.775s.8475-1.9275 1.9275-1.9275h.42c-.195.3975-.3075.84-.3075 1.3125v2.25c0 .705.135 1.3725.39 1.98z" opacity=".4"/><path d="m16.79 5.98219c0 1.08-.4575 2.0025-1.155 2.775-.345.345-.78.6525-1.275.84.255-.6075.39-1.275.39-1.98v-2.25c0-.4725-.1125-.915-.3075-1.3125h.42c1.08 0 1.9275.8475 1.9275 1.9275z" opacity=".4"/><path d="m11.75 2.36719h-4.5c-1.6575 0-3 1.3425-3 3v2.25c0 2.90251 2.3475 5.25001 5.25 5.25001s5.25-2.3475 5.25-5.25001v-2.25c0-1.6575-1.3425-3-3-3zm-.12 4.8375-.465.57c-.075.0825-.1275.2475-.12.36l.045.735c.03.45-.2925.6825-.7125.5175l-.6825-.27c-.105-.0375-.285-.0375-.39 0l-.6825.27c-.42.165-.7425-.0675-.7125-.5175l.045-.735c.0075-.1125-.045-.2775-.12-.36l-.465-.57c-.2925-.345-.165-.7275.27-.84l.7125-.18c.1125-.03.2475-.135.3075-.2325l.3975-.615c.2475-.3825.6375-.3825.885 0l.3975.615c.06.0975.195.2025.3075.2325l.7125.18c.435.1125.5625.495.27.84z"/></g><path d="m11.63 7.20516-.465.57c-.075.0825-.1275.2475-.12.36l.045.73499c.03.45-.2925.6825-.7125.5175l-.6825-.27c-.105-.0375-.285-.0375-.39 0l-.6825.27c-.42.165-.74251-.0675-.71251-.5175l.045-.73499c.0075-.1125-.045-.2775-.12-.36l-.465-.57c-.2925-.345-.165-.7275.27-.84l.71251-.18c.1125-.03.2475-.135.3075-.2325l.3975-.615c.2475-.3825.6375-.3825.885 0l.3975.615c.06.0975.195.2025.3075.2325l.7125.18c.435.1125.5625.495.27.84z" fill="#fcfaff" opacity=".4"/></svg>
